X:1
T: The Jolly Clam Diggers
C:
R:Reel
Q: 232
K:D
M:4/4
L:1/8
|:((3ABc) |d2 FG A2 ((3def) |gf ed fe Bc|d2 FG A2 AB|AG EF D2 ((3ABc) |
d2 FG A2 ((3def) |gf ed fe Bc|d2 FG A2 de|fa ef d2:|
|:((3efg) |af bf af df|gf ed cd ((3efg) |af bf af df|ag ec d2 ((3efg) |
af bf af df|gf ed fd Bc|d2 FG A2 de|fa ef d2:|
